X: 35285
T: Rose Of Denmark, The
R: hornpipe
M: 4/4
K: Gmajor
D2|(3GBd (3gdB G2 AG|(3FGA (3GFE D2 B,A,|G,B,DB, CEAG|
(3FGA (3GFE D2 BA|(3GBd (3gdB G2 AG|(3FGA (3GFE D2 B,A,|(3G,B,D (3CEG (3DFA (3cAF|
A2 G2 G2:|:d2|gdBG DGBd|ecAE CEAd|dBGD B,DGB|(3ABA (3GFE D2 d2|
gdBG DGBg|ecAF CEAe|dBGD B,DGB|(3AcA (3FAF G2:|

